!!!ONB: MCCC : IJH0402_03 : Extracted Monophonic Melody
!!!COM: Haydn, Joseph
!!!OPR: String Quartet in A major
!!!OMV: 3
!!!SCT: Hob.III:60 ; Op.55 No.1
!!!ODT: 1788///
**kern
*thru
*>A
*clefG2
*k[f#c#g#]
*A:
*M3/4
8.cc#
16dd
2r
=1
4ee
4ee
4ee
=2
8ee
8ddd
8ddd
8bb
8bb
8gg#
=3
8ee
8ccc#
8ccc#
8bb
8bb
8aa
=4
8aa
8gg#
8ff#
8ee
8ff#
8gg#
=5
8aa
8r
8aa
8r
8aa
8r
=6
8aa#
8r
8aa#
8r
8aa#
8r
=7
2bb
16bb
16aa
16gg#
16ff#
=8
4ee
4r
=9
8.g#
16a
2r
=10
4b
4b
16a
16g#
16f#
16e
=11
4ee
4ee
16dd
16cc#
16b
16a
=12
4aa
4aa
16gg#
16ff#
16ee
16dd#
=13
2ee
8.ee
16dd
=14
4cc#
4cc#
4cc#
=15
8cc#
8dd
8dd#
8ee
8ee#
8ff#
=16
8ff#
8b
4b
4b
=17
8b
8cc
8cc#
8dd
8dd#
8ee
=18
8ee
8dd
8dd
8cc#
8cc#
8b
=19
8a
8g#
8f#
8e
8.cc#
16dd
=20
4ee
4ee
4ee
=21
8ee
8ddd
8ddd
8bb
8bb
8gg#
=22
8ee
8ccc#
8ccc#
8bb
8bb
8aa
=23
8aa
8gg#
8ff#
8ee
8ff#
8gg#
=24
4aa
4aa
4aa#
=25
4bb
4bb
4bb#
=26
4ccc#[
8.ccc#]
16eee
8.ddd
16bb
=27
4aa
4r
=28
4r
2r
=29
2.r
=30
8aa
8bb
8ccc#
8aa
8eee
8ccc#
=31
8ddd
8bb
8aa
8gg#
8ff#
8ee
=32
8aa
8ccc#
8eee
8ccc#
8ggg
8eee
=33
8fff#
8ddd
8aa
8ddd
8ggg#
8eee
=34
8aaa
8eee
8aaa
8eee
8bbb
8eee
=35
8cccc#
8cccc#
8cccc#
8cccc#
8cccc#
8cccc#
=36
8bbb
8bbb
8bbb
8bbb
8bbb
8bbb
=37
8aaa
8ggg#
8aaa
8fff#
8bbb
8ggg#
=38
4eee
4r
=39
*>B
4r
2r
=40
2.r
=41
2.r
=42
2.r
=43
2.r
=44
2.r
=45
2.r
=46
2.r
=47
8aa
8bb
8ccc#
8aa
8eee
8ccc#
=48
8ddd
8bb
8aa
8gg#
8ff#
8ee
=49
8aa
8ccc#
8eee
8ccc#
8ggg
8eee
=50
8fff#
8ddd
8aa
8ddd
8ggg#
8eee
=51
8aaa
8eee
8aaa
8eee
8bbb
8eee
=52
4cccc#
4r
4r
=53
8B
8c#
8d
8B
8f#
8d
=54
8c#
8d
8e
8f#
8g#
8a
=55
8e
8f#
8g#
8a
8b
8cc#
=56
2A
8c#
8B
=57
4A
4r
=58
*>B
4r
2r
=59
2.r
=60
2.r
=61
2.r
=62
2.r
=63
2.r
=64
2.r
=65
2.r
=66
8aa
8bb
8ccc#
8aa
8eee
8ccc#
=67
8ddd
8bb
8aa
8gg#
8ff#
8ee
=68
8aa
8ccc#
8eee
8ccc#
8ggg
8eee
=69
8fff#
8ddd
8aa
8ddd
8ggg#
8eee
=70
8aaa
8eee
8aaa
8eee
8bbb
8eee
=71
4cccc#
4r
4r
=72
8B
8c#
8d
8B
8f#
8d
=73
8c#
8d
8e
8f#
8g#
8a
=74
8e
8f#
8g#
8a
8b
8cc#
=75
2A
8c#
8B
=76
4A
4r
==
*-
